ion/dice.svg

<svg viewBox="0 0 512 512" xmlns="http://www.w3.org/2000/svg"><g><path d="M440.88 129.37L288.16 40.62v-.001c-19.9-11.54-44.44-11.54-64.33 0l-152.71 88.75v0c-1.91 1.11-2.55 3.56-1.43 5.47 .34.58.83 1.08 1.42 1.42l182.88 107.58v0c1.25.73 2.8.73 4.06 0l182.84-107.58v0c1.9-1.13 2.53-3.58 1.4-5.48 -.35-.59-.84-1.08-1.43-1.43ZM256 152c-13.25 0-24-7.16-24-16s10.75-16 24-16 24 7.16 24 16 -10.75 16-24 16Z"/><path d="M238 270.81L54 163.48l-.001 0c-1.92-1.11-4.36-.45-5.47 1.46 -.36.6-.54 1.29-.54 1.99v173.92h0c.03 17.05 9.1 32.8 23.84 41.39l162.16 97.23v0c1.91 1.1 4.35.44 5.46-1.47 .35-.61.53-1.3.53-2V274.25v0c-.01-1.43-.77-2.75-2-3.46ZM96 368c-8.84 0-16-10.75-16-24s7.16-24 16-24 16 10.75 16 24 -7.16 24-16 24Zm96-32c-8.84 0-16-10.75-16-24s7.16-24 16-24 16 10.75 16 24 -7.16 24-16 24Z"/><path d="M458 163.51L274 271.56v-.001c-1.24.71-2 2.02-2 3.45v200.99 0c0 2.2 1.79 3.99 4 3.99 .7-.01 1.38-.19 1.99-.54l162.15-97.23 -.001 0c14.73-8.58 23.81-24.33 23.85-41.37V166.98v0c.01-2.21-1.77-4.02-3.98-4.03 -.72-.01-1.42.18-2.03.53ZM320 424c-8.84 0-16-10.75-16-24s7.16-24 16-24 16 10.75 16 24 -7.16 24-16 24Zm0-88c-8.84 0-16-10.75-16-24s7.16-24 16-24 16 10.75 16 24 -7.16 24-16 24Zm96 32c-8.84 0-16-10.75-16-24s7.16-24 16-24 16 10.75 16 24 -7.16 24-16 24Zm0-88c-8.84 0-16-10.75-16-24s7.16-24 16-24 16 10.75 16 24 -7.16 24-16 24Z"/></g></svg>

<svg xmlns="http://www.w3.org/2000/svg" viewBox="0 0 512 512"><path d="M440.88,129.37,288.16,40.62a64.14,64.14,0,0,0-64.33,0L71.12,129.37a4,4,0,0,0,0,6.9L254,243.85a4,4,0,0,0,4.06,0L440.9,136.27A4,4,0,0,0,440.88,129.37ZM256,152c-13.25,0-24-7.16-24-16s10.75-16,24-16,24,7.16,24,16S269.25,152,256,152Z"/><path d="M238,270.81,54,163.48a4,4,0,0,0-6,3.46V340.86a48,48,0,0,0,23.84,41.39L234,479.48a4,4,0,0,0,6-3.46V274.27A4,4,0,0,0,238,270.81ZM96,368c-8.84,0-16-10.75-16-24s7.16-24,16-24,16,10.75,16,24S104.84,368,96,368Zm96-32c-8.84,0-16-10.75-16-24s7.16-24,16-24,16,10.75,16,24S200.84,336,192,336Z"/><path d="M458,163.51,274,271.56a4,4,0,0,0-2,3.45V476a4,4,0,0,0,6,3.46l162.15-97.23A48,48,0,0,0,464,340.86V167A4,4,0,0,0,458,163.51ZM320,424c-8.84,0-16-10.75-16-24s7.16-24,16-24,16,10.75,16,24S328.84,424,320,424Zm0-88c-8.84,0-16-10.75-16-24s7.16-24,16-24,16,10.75,16,24S328.84,336,320,336Zm96,32c-8.84,0-16-10.75-16-24s7.16-24,16-24,16,10.75,16,24S424.84,368,416,368Zm0-88c-8.84,0-16-10.75-16-24s7.16-24,16-24,16,10.75,16,24S424.84,280,416,280Z"/></svg>
